X:1
T:Long Funny Dingle-Dangle
M:6/8
L:1/8
K:G
 BGG G2 D| G3/2 A/2B/2 c/2 dBB| cAA A2 D| G3/2 A/2B/2 c/2 dBB| cec BdB|\
 A3/2 B/2A/2 G/2 FD D/2D/2| G D/2D/2 D/2D/2 EDD| DEF G3|
